findly-builder/apps/searchassist/src/assets/icons/analytics/thumb-success.svg

<svg width="13" height="13" viewBox="0 0 13 13" fill="none" xmlns="http://www.w3.org/2000/svg">
<path d="M13 7.04167C13 6.6235 12.8378 6.2465 12.5783 5.95833C12.8378 5.67017 13 5.29317 13 4.875C13 3.97908 12.2723 3.25 11.378 3.25H7.10772L7.50457 2.08C7.62569 1.66292 7.57811 1.22417 7.36941 0.843918C7.16071 0.463668 6.81683 0.186334 6.4016 0.065001C5.63924 -0.152749 4.86932 0.177668 4.31135 1.04L2.31625 4.33333H0V13H2.56821V12.9729C2.61146 12.9848 2.65472 13 2.70338 13H10.2966C11.1909 13 11.9186 12.2709 11.9186 11.375C11.9186 11.1302 11.8603 10.9005 11.7629 10.6914C12.3306 10.4379 12.7297 9.87025 12.7297 9.20833C12.7297 8.85842 12.6161 8.53558 12.428 8.27017C12.7751 7.97225 13 7.53458 13 7.04167ZM1.08135 5.41667H2.1627V11.9167H1.08135V5.41667ZM10.2966 11.9167H3.24405V4.89125L5.22725 1.61742C5.5722 1.08333 5.8447 1.08333 5.94743 1.08333C5.99825 1.08333 6.05016 1.09092 6.0999 1.10608C6.38538 1.18842 6.55082 1.48958 6.47405 1.755L5.84146 3.61833C5.78415 3.78192 5.81118 3.965 5.91283 4.10692C6.01447 4.24883 6.17776 4.33333 6.35294 4.33333H11.378C11.6764 4.33333 11.9186 4.57708 11.9186 4.875C11.9186 5.17292 11.6764 5.41667 11.378 5.41667H9.75595V6.5H11.378C11.6764 6.5 11.9186 6.74375 11.9186 7.04167C11.9186 7.33958 11.6764 7.58333 11.378 7.58333H9.75595V8.66667H11.1076C11.4061 8.66667 11.6483 8.91042 11.6483 9.20833C11.6483 9.50625 11.4061 9.75 11.1076 9.75H9.75595V10.8333H10.2966C10.5951 10.8333 10.8373 11.0771 10.8373 11.375C10.8373 11.6729 10.5951 11.9167 10.2966 11.9167Z" fill="#0D6EFD"/>
</svg>

<svg width="13" height="13" fill="none" xmlns="http://www.w3.org/2000/svg"><path d="M13 7.042c0-.418-.162-.795-.422-1.084A1.61 1.61 0 0 0 13 4.875c0-.896-.728-1.625-1.622-1.625h-4.27l.397-1.17A1.615 1.615 0 0 0 7.369.844a1.615 1.615 0 0 0-.967-.779c-.763-.218-1.533.113-2.09.975L2.315 4.333H0V13h2.568v-.027c.043.012.087.027.135.027h7.594c.894 0 1.622-.73 1.622-1.625 0-.245-.059-.475-.156-.684a1.618 1.618 0 0 0 .665-2.421c.347-.298.572-.735.572-1.228ZM1.081 5.417h1.082v6.5H1.08v-6.5Zm9.216 6.5H3.244V4.89l1.983-3.274c.345-.534.618-.534.72-.534a.538.538 0 0 1 .527.672l-.633 1.863a.54.54 0 0 0 .511.715h5.026a.542.542 0 0 1 0 1.084H9.756V6.5h1.622a.542.542 0 0 1 0 1.083H9.756v1.084h1.352a.542.542 0 0 1 0 1.083H9.756v1.083h.54a.542.542 0 0 1 0 1.084Z" fill="#0D6EFD"/></svg>
